X:3008
T:Childgrove
R:Marchl
C:Trad. Playford 1701
O:England
M:2/4
L:1/8
Q:1/4=80
K:DDor
A|\
"Dm"Ad de|f2 ed|"Gm"gf ed|"Am"e>d c/B/A|
"Dm"Ad de|f2 ea|"Gm"g>f "A7"e/f/e/d/|"Dm"d3:|
|:f/g/|\
"F"af fa|"C"ge eg|"Dm"fd d/e/f/d/|"Am"eA Af/g/|
"F"af fa|"C"g>f e/f/g/e/|"Dm"fe/d/ "A7"ed/^c/|"Dm"d3:|

